src/assets/icons/Download.svg

<svg width="20" height="19" viewBox="0 0 20 19" fill="none" xmlns="http://www.w3.org/2000/svg">
<path d="M9.2301 4.79052V0.781505C9.2301 0.355229 9.5701 0 10.0001 0C10.3851 0 10.7113 0.298491 10.763 0.67658L10.7701 0.781505V4.79052L15.55 4.79083C17.93 4.79083 19.8853 6.73978 19.9951 9.17041L20 9.38609V14.4254C20 16.873 18.1127 18.8822 15.768 18.995L15.56 19H4.44C2.06 19 0.11409 17.0608 0.00483778 14.6213L0 14.4047L0 9.37576C0 6.9281 1.87791 4.90921 4.22199 4.79585L4.43 4.79083H9.23V11.1932L7.63 9.54099C7.33 9.23119 6.84 9.23119 6.54 9.54099C6.39 9.69588 6.32 9.90241 6.32 10.1089C6.32 10.2659 6.3648 10.4295 6.45952 10.5679L6.54 10.6666L9.45 13.6819C9.59 13.8368 9.79 13.9194 10 13.9194C10.1667 13.9194 10.3333 13.862 10.4653 13.7533L10.54 13.6819L13.45 10.6666C13.75 10.3568 13.75 9.85078 13.45 9.54099C13.1773 9.25936 12.7475 9.23375 12.4462 9.46418L12.36 9.54099L10.77 11.1932V4.79083L9.2301 4.79052Z" fill="#8496E7"/>
</svg>

<svg xmlns="http://www.w3.org/2000/svg" width="20" height="19" fill="none"><path fill="#8496E7" d="M9.23 4.79V.783C9.23.355 9.57 0 10 0c.385 0 .711.298.763.677l.007.105V4.79h4.78c2.38 0 4.335 1.949 4.445 4.38l.005.215v5.04c0 2.447-1.887 4.456-4.232 4.569L15.56 19H4.44C2.06 19 .114 17.06.005 14.621L0 14.405v-5.03c0-2.447 1.878-4.466 4.222-4.58l.208-.004zv6.402l-1.6-1.652a.755.755 0 0 0-1.09 0 .8.8 0 0 0-.22.568c0 .157.045.32.14.459l.08.099 2.91 3.015c.14.155.34.237.55.237a.74.74 0 0 0 .465-.166l.075-.071 2.91-3.015c.3-.31.3-.816 0-1.126a.755.755 0 0 0-1.004-.077l-.086.077-1.59 1.652V4.791z"/></svg>
